X:899
T:Sally from Poland
T:Poolsche Sara
C:Old Dutch
B:Oude en Nieuwe Hollantse Boeren Lieties en Contredansen - Sesde Deel
%%stretchstaff 0
%%MIDI beat 100 95 80
S:Colin Hume's website,  colinhume.com  - chords can also be printed below the stave.
Q:1/4=120
M:3/4
R:Triple-time
K:D
P:A
|: "D"(fg/a/)A4 | "F#m"(fg/a/)A4 | "Em"B2 cB "A7"cA | "D"d2 D4 :|
P:B
|: "D"f2f2ed | "G"g2g4 | "Bm"f2f2ed | "A7"e2A4 | "D"(fg/a/)A4 | "F#m"(fg/a/)A4 | "Em"B2 cB "A7"cA | "D"d2D4 :|
P:C
|: "D"fa "Em"gf ge | "A7"e/f/g fe fc | "Bm"d/e/f "Em"e/f/g "A7"fe | "D"f2 f4 :|
P:D
|: "D"f>ed2 "A"c2 | "Bm"de/f/ "G"g4 | "D"f>ed2 "A"c2 | "Bm"de/f/ "G"g4 | "D/A"x4 "A7"x2 & fe d3 c | "D"d2D4 :|

